src/icons/solid/symbols/hours-increase.svg

<svg width="24" height="24" viewBox="0 0 24 24" fill="none" xmlns="http://www.w3.org/2000/svg">
<g clip-path="url(#clip0_6589_958)">
<path fill-rule="evenodd" clip-rule="evenodd" d="M10.9004 3.2002C11.1188 3.2002 11.3358 3.20682 11.5508 3.2207C11.7854 3.23586 12.0182 3.25961 12.248 3.29102C12.7183 3.35543 12.7716 3.93904 12.6602 4.40039C12.5557 4.83322 12.5 5.28508 12.5 5.75C12.5 8.92564 15.0744 11.5 18.25 11.5C18.7152 11.5 19.1676 11.4437 19.6006 11.3389C20.0618 11.2273 20.6446 11.2809 20.709 11.751C20.7381 11.9638 20.7602 12.1794 20.7754 12.3965C20.7916 12.6288 20.7998 12.8633 20.7998 13.0996C20.7998 18.5715 16.3722 22.9998 10.9004 23C5.42839 23 1 18.5716 1 13.0996C1.00021 7.62779 5.43752 3.2002 10.9004 3.2002ZM10.5039 7.73633C10.0453 7.73654 9.67704 8.10485 9.67676 8.56348V13.1836C9.68833 13.3796 9.7676 13.5701 9.90918 13.7119L14.0322 17.4561C14.3613 17.7582 14.8753 17.7348 15.1826 17.4131C15.1866 17.409 15.1916 17.4064 15.1973 17.4062C15.2031 17.4062 15.209 17.4037 15.2129 17.3994C15.5069 17.066 15.4771 16.5522 15.1484 16.25L11.6875 13.0664C11.4611 12.8581 11.3321 12.5645 11.332 12.2568V8.56348C11.3318 8.10482 10.9626 7.73648 10.5039 7.73633Z" fill="#3C3B44"/>
<path d="M18.499 1C18.7389 1.00003 18.9702 1.09575 19.1406 1.26562C19.3104 1.43539 19.4072 1.66873 19.4072 1.91016V4.59277H22.0693L22.2803 4.61328C22.4506 4.64978 22.61 4.73505 22.7344 4.85938C22.9043 5.02978 23 5.26108 23 5.50098C22.9998 5.7103 22.9263 5.91254 22.7939 6.07422L22.7344 6.14062C22.5646 6.31036 22.3313 6.40723 22.0898 6.40723H19.4072V9.08984C19.4072 9.33117 19.3103 9.56458 19.1406 9.73438C18.9702 9.90428 18.739 9.99997 18.499 10C18.2598 9.99977 18.0299 9.90436 17.8594 9.73438C17.6896 9.56461 17.5928 9.33127 17.5928 9.08984V6.40723H14.9102C14.6687 6.40723 14.4354 6.31036 14.2656 6.14062C14.0956 5.97011 14.0002 5.74017 14 5.50098C14 5.26099 14.0957 5.02975 14.2656 4.85938C14.4354 4.68967 14.6688 4.59277 14.9102 4.59277H17.5928V1.91016C17.5928 1.66873 17.6896 1.43539 17.8594 1.26562L17.9258 1.20605C18.0875 1.07369 18.2897 1.0002 18.499 1Z" fill="#3C3B44"/>
</g>
<defs>
<clipPath id="clip0_6589_958">
<rect width="24" height="24" fill="white"/>
</clipPath>
</defs>
</svg>

<svg xmlns="http://www.w3.org/2000/svg" width="24" height="24" fill="none" viewBox="0 0 24 24"><g fill="currentColor" clip-path="url(#a)"><path fill-rule="evenodd" d="M10.9 3.2a10 10 0 0 1 1.348.091c.47.064.524.648.412 1.11q-.158.65-.16 1.349a5.75 5.75 0 0 0 7.1 5.589c.462-.112 1.045-.058 1.109.412a10 10 0 0 1 .09 1.349c0 5.472-4.427 9.9-9.899 9.9A9.895 9.895 0 0 1 1 13.1c0-5.472 4.438-9.9 9.9-9.9m-.396 4.536a.825.825 0 0 0-.827.827v4.62a.8.8 0 0 0 .232.529l4.123 3.744a.825.825 0 0 0 1.15-.043.02.02 0 0 1 .015-.007.02.02 0 0 0 .016-.007.825.825 0 0 0-.065-1.149l-3.46-3.184a1.1 1.1 0 0 1-.356-.81V8.564a.826.826 0 0 0-.828-.827" clip-rule="evenodd"/><path d="M18.499 1a.91.91 0 0 1 .908.91v2.683h2.662l.211.02a.91.91 0 0 1 .72.888c0 .21-.074.412-.206.573l-.06.067a.92.92 0 0 1-.644.266h-2.683V9.09a.91.91 0 0 1-.908.91.907.907 0 0 1-.906-.91V6.407H14.91a.907.907 0 1 1 0-1.814h2.683V1.91c0-.241.097-.475.266-.644l.067-.06A.9.9 0 0 1 18.499 1"/></g><defs><clipPath id="a"><path fill="currentColor" d="M0 0h24v24H0z"/></clipPath></defs></svg>
